svg/x2gologo.svg

<?xml version="1.0" encoding="UTF-8" standalone="no"?>
<svg
   xmlns:dc="http://purl.org/dc/elements/1.1/"
   xmlns:cc="http://creativecommons.org/ns#"
   xmlns:rdf="http://www.w3.org/1999/02/22-rdf-syntax-ns#"
   xmlns:svg="http://www.w3.org/2000/svg"
   xmlns="http://www.w3.org/2000/svg"
   xmlns:xlink="http://www.w3.org/1999/xlink"
   xmlns:sodipodi="http://sodipodi.sourceforge.net/DTD/sodipodi-0.dtd"
   xmlns:inkscape="http://www.inkscape.org/namespaces/inkscape"
   id="svg2"
   sodipodi:version="0.32"
   inkscape:version="0.48.3.1 r9886"
   width="128"
   height="128"
   sodipodi:docname="x2go-logo.svg"
   inkscape:output_extension="org.inkscape.output.svg.inkscape"
   version="1.0"
   inkscape:export-xdpi="90"
   inkscape:export-ydpi="90">
  <metadata
     id="metadata87">
    <rdf:RDF>
      <cc:Work
         rdf:about="">
        <dc:format>image/svg+xml</dc:format>
        <dc:type
           rdf:resource="http://purl.org/dc/dcmitype/StillImage" />
        <dc:title>x2go Logo</dc:title>
        <dc:date>12.06.2007</dc:date>
        <dc:creator>
          <cc:Agent>
            <dc:title>Heinz-M. Graesing</dc:title>
          </cc:Agent>
        </dc:creator>
        <dc:rights>
          <cc:Agent>
            <dc:title>obviously-nice</dc:title>
          </cc:Agent>
        </dc:rights>
        <dc:publisher>
          <cc:Agent>
            <dc:title>obviously-nice</dc:title>
          </cc:Agent>
        </dc:publisher>
        <dc:source>http://www.x2go.org/artwork</dc:source>
        <dc:language>DE</dc:language>
        <dc:subject>
          <rdf:Bag>
            <rdf:li>Logo</rdf:li>
          </rdf:Bag>
        </dc:subject>
        <cc:license
           rdf:resource="http://www.gnu.org/licenses/gpl-2.0.txt" />
      </cc:Work>
    </rdf:RDF>
  </metadata>
  <defs
     id="defs85">
    <inkscape:perspective
       sodipodi:type="inkscape:persp3d"
       inkscape:vp_x="0 : 64 : 1"
       inkscape:vp_y="0 : 1000 : 0"
       inkscape:vp_z="128 : 64 : 1"
       inkscape:persp3d-origin="64 : 42.666667 : 1"
       id="perspective46" />
    <radialGradient
       inkscape:collect="always"
       xlink:href="#linearGradient4472"
       id="radialGradient4478"
       cx="44.602337"
       cy="44.941875"
       fx="44.602337"
       fy="44.941875"
       r="35.79092"
       gradientTransform="matrix(1,0,0,1.15885,67.847226,-18.98329)"
       gradientUnits="userSpaceOnUse" />
    <linearGradient
       id="linearGradient4472">
      <stop
         style="stop-color: rgb(23, 118, 255); stop-opacity: 1;"
         offset="0"
         id="stop4474" />
      <stop
         id="stop4564"
         offset="1"
         style="stop-color: rgb(255, 255, 255); stop-opacity: 1;" />
    </linearGradient>
    <radialGradient
       r="35.79092"
       fy="44.941875"
       fx="44.602337"
       cy="44.941875"
       cx="44.602337"
       gradientTransform="matrix(1.5430561,0,0,1.7881705,-4.7786,-14.363356)"
       gradientUnits="userSpaceOnUse"
       id="radialGradient3195"
       xlink:href="#linearGradient4472"
       inkscape:collect="always" />
  </defs>
  <sodipodi:namedview
     inkscape:window-height="1056"
     inkscape:window-width="1855"
     inkscape:pageshadow="2"
     inkscape:pageopacity="0.0"
     guidetolerance="10.0"
     gridtolerance="10.0"
     objecttolerance="10.0"
     borderopacity="1.0"
     bordercolor="#666666"
     pagecolor="#ffffff"
     id="base"
     showgrid="true"
     inkscape:object-nodes="true"
     inkscape:grid-points="true"
     inkscape:guide-points="true"
     width="128px"
     height="128px"
     inkscape:zoom="3.82"
     inkscape:cx="64"
     inkscape:cy="64"
     inkscape:window-x="65"
     inkscape:window-y="24"
     inkscape:current-layer="svg2"
     inkscape:window-maximized="1">
    <inkscape:grid
       id="GridFromPre046Settings"
       type="xygrid"
       originx="0px"
       originy="0px"
       spacingx="1px"
       spacingy="1px"
       color="#0000ff"
       empcolor="#0000ff"
       opacity="0.2"
       empopacity="0.4"
       empspacing="5"
       visible="true"
       enabled="true"
       snapvisiblegridlinesonly="true"
       dotted="true" />
  </sodipodi:namedview>
  <path
     style="fill:#ffffff;fill-opacity:1;stroke:none"
     d="m 9.9375,2.03125 c -4.3962933,0 -8,3.5724569 -8,7.96875 l 0,108.0625 c 0,4.39629 3.6037067,8 8,8 l 108.0625,0 c 4.3963,0 7.96875,-3.60371 7.96875,-8 l 0,-108.0625 c 0,-4.3962931 -3.57245,-7.96875 -7.96875,-7.96875 z"
     id="rect3043"
     inkscape:connector-curvature="0"
     sodipodi:nodetypes="sssssssss" />
  <path
     sodipodi:nodetypes="cssccssccccssccssc"
     inkscape:connector-curvature="0"
     id="path3045"
     d="M 9.0087977,0 C 4.0359413,0 0,4.0359413 0,9.0087977 L 0,118.9912 C 0,123.96406 4.0359413,128 9.0087977,128 L 118.9912,128 C 123.96406,128 128,123.96406 128,118.9912 L 128,9.0087977 C 128,4.0359413 123.96406,0 118.9912,0 82.330401,0 45.669599,0 9.0087977,0 z m 0.9384164,2.0332356 c 36.0143369,0 72.0286739,0 108.0430059,0 4.3963,0 7.97654,3.5802463 7.97654,7.9765394 l 0,108.043015 c 0,4.39629 -3.58024,8.00782 -7.97654,8.00782 l -108.0430059,0 c -4.3962933,0 -8.0078202,-3.61153 -8.0078202,-8.00782 l 0,-108.043015 c 0,-4.3962931 3.6115269,-7.9765394 8.0078202,-7.9765394 z"
     style="fill:#4d4d4d" />
  <g
     style="fill:#4d4d4d"
     id="g4"
     transform="matrix(1.0009775,0,0,1.0009775,0,-925.3907)">
    <path
       d="m 90,977.626 13.32,-25.776 c 0.936,-2.52 1.368,-4.32 1.368,-5.256 0,-1.512 -0.504,-2.664 -1.44,-3.312 -1.008,-0.72 -2.736,-1.08 -5.184,-1.08 l 0,-2.376 22.104,0 0,2.376 c -3.024,0 -5.184,0.648 -6.696,1.944 -1.512,1.296 -3.6,4.752 -6.48,10.368 l -14.616,28.44 18.432,41.544 c 1.872,3.888 3.528,6.624 4.968,8.136 1.44,1.44 3.168,2.232 5.112,2.232 l 0,2.304 -26.352,0 0,-2.304 c 2.376,0 4.032,-0.288 5.04,-0.936 1.008,-0.576 1.512,-1.584 1.512,-2.88 0,-1.224 -0.72,-3.384 -2.016,-6.552 l -12.96,-29.016 -14.832,29.016 c -1.368,2.448 -2.088,4.464 -2.088,5.976 0,2.952 2.16,4.392 6.48,4.392 l 0,2.304 -19.944,0 0,-2.304 c 1.944,0 3.672,-0.648 5.112,-1.872 1.44,-1.224 2.952,-3.312 4.392,-6.408 L 83.736,990.01 67.248,952.498 c -1.728,-4.032 -3.312,-6.696 -4.824,-8.136 -1.584,-1.44 -3.816,-2.16 -6.696,-2.16 l 0,-2.376 28.296,0 0,2.376 c -4.392,0 -6.624,1.512 -6.624,4.536 0,1.512 0.432,3.24 1.296,5.112 L 90,977.626 z"
       id="path6"
       style="fill:#4d4d4d"
       inkscape:connector-curvature="0" />
  </g>
  <g
     style="fill:#4d4d4d"
     id="g8"
     transform="matrix(1.0009775,0,0,1.0009775,0,-925.3907)">
    <path
       d="m 6.984,940.474 43.992,-1.224 0,2.448 -43.992,-1.224 z"
       id="path10"
       style="fill:#4d4d4d"
       inkscape:connector-curvature="0" />
  </g>
  <g
     style="fill:#4d4d4d"
     id="g12"
     transform="matrix(1.0009775,0,0,1.0009775,0,-925.3907)">
    <path
       d="m 6.984,946.45 43.992,-1.152 0,1.656 5.184,0.072 0.36,0 0.288,0 0.288,0.072 0.288,0 0.288,0.072 0.216,0.072 0.216,0.072 0.216,0.072 0.144,0.072 0.144,0.072 0.144,0.072 0.144,0.072 0.072,0.072 0.144,0.072 0,0.072 0.072,0 -52.2,-1.44 z"
       id="path14"
       style="fill:#4d4d4d"
       inkscape:connector-curvature="0" />
  </g>
  <g
     style="fill:#4d4d4d"
     id="g16"
     transform="matrix(1.0009775,0,0,1.0009775,0,-925.3907)">
    <path
       d="m 6.984,952.498 54.288,-1.512 0.216,0.36 0.288,0.576 0.288,0.576 0.288,0.648 0.288,0.648 0.144,0.216 -55.8,-1.512 z"
       id="path18"
       style="fill:#4d4d4d"
       inkscape:connector-curvature="0" />
  </g>
  <g
     style="fill:#4d4d4d"
     id="g20"
     transform="matrix(1.0009775,0,0,1.0009775,0,-925.3907)">
    <path
       d="m 6.984,958.474 56.952,-1.584 1.44,3.168 -58.392,-1.584 z"
       id="path22"
       style="fill:#4d4d4d"
       inkscape:connector-curvature="0" />
  </g>
  <g
     style="fill:#4d4d4d"
     id="g24"
     transform="matrix(1.0009775,0,0,1.0009775,0,-925.3907)">
    <path
       d="m 6.984,964.45 59.544,-1.584 1.44,3.24 -60.984,-1.656 z"
       id="path26"
       style="fill:#4d4d4d"
       inkscape:connector-curvature="0" />
  </g>
  <g
     style="fill:#4d4d4d"
     id="g28"
     transform="matrix(1.0009775,0,0,1.0009775,0,-925.3907)">
    <path
       d="m 6.984,970.498 62.136,-1.728 1.512,3.456 -63.648,-1.728 z"
       id="path30"
       style="fill:#4d4d4d"
       inkscape:connector-curvature="0" />
  </g>
  <g
     style="fill:#4d4d4d"
     id="g32"
     transform="matrix(1.0009775,0,0,1.0009775,0,-925.3907)">
    <path
       d="m 6.984,976.474 64.728,-1.8 1.584,3.6 -66.312,-1.8 z"
       id="path34"
       style="fill:#4d4d4d"
       inkscape:connector-curvature="0" />
  </g>
  <g
     style="fill:#4d4d4d"
     id="g36"
     transform="matrix(1.0009775,0,0,1.0009775,0,-925.3907)">
    <path
       d="m 6.984,982.45 67.32,-1.8 1.656,3.672 -68.976,-1.872 z"
       id="path38"
       style="fill:#4d4d4d"
       inkscape:connector-curvature="0" />
  </g>
  <g
     style="fill:#4d4d4d"
     id="g40"
     transform="matrix(1.0009775,0,0,1.0009775,0,-925.3907)">
    <path
       d="m 6.984,988.426 69.912,-1.872 1.512,3.312 -0.216,0.504 -71.208,-1.944 z"
       id="path42"
       style="fill:#4d4d4d"
       inkscape:connector-curvature="0" />
  </g>
  <g
     style="fill:#4d4d4d"
     id="g44"
     transform="matrix(1.0009775,0,0,1.0009775,0,-925.3907)">
    <path
       d="m 6.984,994.402 70.128,-1.944 -1.944,3.816 -68.184,-1.872 z"
       id="path46"
       style="fill:#4d4d4d"
       inkscape:connector-curvature="0" />
  </g>
  <g
     style="fill:#4d4d4d"
     id="g48"
     transform="matrix(1.0009775,0,0,1.0009775,0,-925.3907)">
    <path
       d="m 6.984,1000.378 67.032,-1.8 -1.8,3.6 -65.232,-1.8 z"
       id="path50"
       style="fill:#4d4d4d"
       inkscape:connector-curvature="0" />
  </g>
  <g
     style="fill:#4d4d4d"
     id="g52"
     transform="matrix(1.0009775,0,0,1.0009775,0,-925.3907)">
    <path
       d="m 6.984,1006.354 63.936,-1.728 -1.728,3.456 -62.208,-1.728 z"
       id="path54"
       style="fill:#4d4d4d"
       inkscape:connector-curvature="0" />
  </g>
  <g
     style="fill:#4d4d4d"
     id="g56"
     transform="matrix(1.0009775,0,0,1.0009775,0,-925.3907)">
    <path
       d="m 6.984,1012.402 60.912,-1.656 -1.728,3.24 -59.184,-1.584 z"
       id="path58"
       style="fill:#4d4d4d"
       inkscape:connector-curvature="0" />
  </g>
  <g
     style="fill:#4d4d4d"
     id="g60"
     transform="matrix(1.0009775,0,0,1.0009775,0,-925.3907)">
    <path
       d="m 6.984,1036.378 43.992,-1.224 0,2.448 -43.992,-1.224 z"
       id="path62"
       style="fill:#4d4d4d"
       inkscape:connector-curvature="0" />
  </g>
  <g
     style="fill:#4d4d4d"
     id="g64"
     transform="matrix(1.0009775,0,0,1.0009775,0,-925.3907)">
    <path
       d="m 6.984,1030.402 51.12,-1.44 -0.072,0.144 -0.144,0.072 -0.144,0.144 -0.144,0.072 -0.072,0.144 -0.144,0.072 -0.072,0.072 -0.144,0 -0.144,0.072 -0.072,0.072 -0.144,0.072 -0.072,0 -0.144,0.072 -0.144,0 -0.072,0 -0.144,0.072 -0.144,0 -0.144,0 -4.968,0.072 0,1.44 -43.992,-1.152 z"
       id="path66"
       style="fill:#4d4d4d"
       inkscape:connector-curvature="0" />
  </g>
  <g
     style="fill:#4d4d4d"
     id="g68"
     transform="matrix(1.0009775,0,0,1.0009775,0,-925.3907)">
    <path
       d="m 6.984,1024.354 54.792,-1.44 -0.792,1.584 -0.288,0.504 -0.216,0.504 -0.216,0.36 -53.28,-1.512 z"
       id="path70"
       style="fill:#4d4d4d"
       inkscape:connector-curvature="0" />
  </g>
  <g
     style="fill:#4d4d4d"
     id="g72"
     transform="matrix(1.0009775,0,0,1.0009775,0,-925.3907)">
    <path
       d="m 6.984,1018.378 57.816,-1.584 -1.512,3.096 -56.304,-1.512 z"
       id="path74"
       style="fill:#4d4d4d"
       inkscape:connector-curvature="0" />
  </g>
  <path
     style="fill:#4d4d4d"
     d="M 9.0087977,0 C 4.0359413,0 0,4.0359413 0,9.0087977 L 0,118.9912 C 0,123.96406 4.0359413,128 9.0087977,128 L 118.9912,128 C 123.96406,128 128,123.96406 128,118.9912 L 128,9.0087977 C 128,4.0359413 123.96406,0 118.9912,0 82.330401,0 45.669599,0 9.0087977,0 z m 0.9384164,2.0332356 c 36.0143369,0 72.0286739,0 108.0430059,0 4.3963,0 7.97654,3.5802463 7.97654,7.9765394 l 0,108.043015 c 0,4.39629 -3.58024,8.00782 -7.97654,8.00782 l -108.0430059,0 c -4.3962933,0 -8.0078202,-3.61153 -8.0078202,-8.00782 l 0,-108.043015 c 0,-4.3962931 3.6115269,-7.9765394 8.0078202,-7.9765394 z"
     id="path78"
     inkscape:connector-curvature="0"
     sodipodi:nodetypes="cssccssccccssccssc" />
</svg>

<?xml version="1.0" encoding="UTF-8" standalone="no"?>
<!-- Created with Inkscape (http://www.inkscape.org/) -->
<svg
   xmlns:dc="http://purl.org/dc/elements/1.1/"
   xmlns:cc="http://creativecommons.org/ns#"
   xmlns:rdf="http://www.w3.org/1999/02/22-rdf-syntax-ns#"
   xmlns:svg="http://www.w3.org/2000/svg"
   xmlns="http://www.w3.org/2000/svg"
   xmlns:sodipodi="http://sodipodi.sourceforge.net/DTD/sodipodi-0.dtd"
   xmlns:inkscape="http://www.inkscape.org/namespaces/inkscape"
   version="1.0"
   width="128"
   height="128"
   id="svg2"
   sodipodi:version="0.32"
   inkscape:version="0.46"
   sodipodi:docname="x2go-logo.svg"
   inkscape:output_extension="org.inkscape.output.svg.inkscape">
  <metadata
     id="metadata45">
    <rdf:RDF>
      <cc:Work
         rdf:about="">
        <dc:format>image/svg+xml</dc:format>
        <dc:type
           rdf:resource="http://purl.org/dc/dcmitype/StillImage" />
      </cc:Work>
    </rdf:RDF>
  </metadata>
  <sodipodi:namedview
     inkscape:window-height="713"
     inkscape:window-width="1280"
     inkscape:pageshadow="2"
     inkscape:pageopacity="0.0"
     guidetolerance="10.0"
     gridtolerance="10.0"
     objecttolerance="10.0"
     borderopacity="1.0"
     bordercolor="#666666"
     pagecolor="#ffffff"
     id="base"
     showgrid="false"
     inkscape:zoom="3.890625"
     inkscape:cx="64"
     inkscape:cy="55.972543"
     inkscape:window-x="0"
     inkscape:window-y="0"
     inkscape:current-layer="svg2" />
  <defs
     id="defs85">
    <inkscape:perspective
       sodipodi:type="inkscape:persp3d"
       inkscape:vp_x="0 : 64 : 1"
       inkscape:vp_y="0 : 1000 : 0"
       inkscape:vp_z="128 : 64 : 1"
       inkscape:persp3d-origin="64 : 42.666667 : 1"
       id="perspective47" />
  </defs>
  <g
     id="g2420"
     transform="matrix(0.8602352,0,0,0.8602352,9.0000023,8.8898921)"
     style="fill:#ffffff">
    <g
       style="fill:#ffffff"
       id="g4"
       transform="translate(0,-924.362)">
      <path
         style="fill:#ffffff"
         id="path6"
         d="M 90,977.626 L 103.32,951.85 C 104.256,949.33 104.688,947.53 104.688,946.594 C 104.688,945.082 104.184,943.93 103.248,943.282 C 102.24,942.562 100.512,942.202 98.064,942.202 L 98.064,939.826 L 120.168,939.826 L 120.168,942.202 C 117.144,942.202 114.984,942.85 113.472,944.146 C 111.96,945.442 109.872,948.898 106.992,954.514 L 92.376,982.954 L 110.808,1024.498 C 112.68,1028.386 114.336,1031.122 115.776,1032.634 C 117.216,1034.074 118.944,1034.866 120.888,1034.866 L 120.888,1037.17 L 94.536,1037.17 L 94.536,1034.866 C 96.912,1034.866 98.568,1034.578 99.576,1033.93 C 100.584,1033.354 101.088,1032.346 101.088,1031.05 C 101.088,1029.826 100.368,1027.666 99.072,1024.498 L 86.112,995.482 L 71.28,1024.498 C 69.912,1026.946 69.192,1028.962 69.192,1030.474 C 69.192,1033.426 71.352,1034.866 75.672,1034.866 L 75.672,1037.17 L 55.728,1037.17 L 55.728,1034.866 C 57.672,1034.866 59.4,1034.218 60.84,1032.994 C 62.28,1031.77 63.792,1029.682 65.232,1026.586 L 83.736,990.01 L 67.248,952.498 C 65.52,948.466 63.936,945.802 62.424,944.362 C 60.84,942.922 58.608,942.202 55.728,942.202 L 55.728,939.826 L 84.024,939.826 L 84.024,942.202 C 79.632,942.202 77.4,943.714 77.4,946.738 C 77.4,948.25 77.832,949.978 78.696,951.85 L 90,977.626 z" />
    </g>
    <g
       style="fill:#ffffff"
       id="g8"
       transform="translate(0,-924.362)">
      <path
         style="fill:#ffffff"
         id="path10"
         d="M 6.984,940.474 L 50.976,939.25 L 50.976,941.698 L 6.984,940.474 z" />
    </g>
    <g
       style="fill:#ffffff"
       id="g12"
       transform="translate(0,-924.362)">
      <path
         style="fill:#ffffff"
         id="path14"
         d="M 6.984,946.45 L 50.976,945.298 L 50.976,946.954 L 56.16,947.026 L 56.52,947.026 L 56.808,947.026 L 57.096,947.098 L 57.384,947.098 L 57.672,947.17 L 57.888,947.242 L 58.104,947.314 L 58.32,947.386 L 58.464,947.458 L 58.608,947.53 L 58.752,947.602 L 58.896,947.674 L 58.968,947.746 L 59.112,947.818 L 59.112,947.89 L 59.184,947.89 L 6.984,946.45 z" />
    </g>
    <g
       style="fill:#ffffff"
       id="g16"
       transform="translate(0,-924.362)">
      <path
         style="fill:#ffffff"
         id="path18"
         d="M 6.984,952.498 L 61.272,950.986 L 61.488,951.346 L 61.776,951.922 L 62.064,952.498 L 62.352,953.146 L 62.64,953.794 L 62.784,954.01 L 6.984,952.498 z" />
    </g>
    <g
       style="fill:#ffffff"
       id="g20"
       transform="translate(0,-924.362)">
      <path
         style="fill:#ffffff"
         id="path22"
         d="M 6.984,958.474 L 63.936,956.89 L 65.376,960.058 L 6.984,958.474 z" />
    </g>
    <g
       style="fill:#ffffff"
       id="g24"
       transform="translate(0,-924.362)">
      <path
         style="fill:#ffffff"
         id="path26"
         d="M 6.984,964.45 L 66.528,962.866 L 67.968,966.106 L 6.984,964.45 z" />
    </g>
    <g
       style="fill:#ffffff"
       id="g28"
       transform="translate(0,-924.362)">
      <path
         style="fill:#ffffff"
         id="path30"
         d="M 6.984,970.498 L 69.12,968.77 L 70.632,972.226 L 6.984,970.498 z" />
    </g>
    <g
       style="fill:#ffffff"
       id="g32"
       transform="translate(0,-924.362)">
      <path
         style="fill:#ffffff"
         id="path34"
         d="M 6.984,976.474 L 71.712,974.674 L 73.296,978.274 L 6.984,976.474 z" />
    </g>
    <g
       style="fill:#ffffff"
       id="g36"
       transform="translate(0,-924.362)">
      <path
         style="fill:#ffffff"
         id="path38"
         d="M 6.984,982.45 L 74.304,980.65 L 75.96,984.322 L 6.984,982.45 z" />
    </g>
    <g
       style="fill:#ffffff"
       id="g40"
       transform="translate(0,-924.362)">
      <path
         style="fill:#ffffff"
         id="path42"
         d="M 6.984,988.426 L 76.896,986.554 L 78.408,989.866 L 78.192,990.37 L 6.984,988.426 z" />
    </g>
    <g
       style="fill:#ffffff"
       id="g44"
       transform="translate(0,-924.362)">
      <path
         style="fill:#ffffff"
         id="path46"
         d="M 6.984,994.402 L 77.112,992.458 L 75.168,996.274 L 6.984,994.402 z" />
    </g>
    <g
       style="fill:#ffffff"
       id="g48"
       transform="translate(0,-924.362)">
      <path
         style="fill:#ffffff"
         id="path50"
         d="M 6.984,1000.378 L 74.016,998.578 L 72.216,1002.178 L 6.984,1000.378 z" />
    </g>
    <g
       style="fill:#ffffff"
       id="g52"
       transform="translate(0,-924.362)">
      <path
         style="fill:#ffffff"
         id="path54"
         d="M 6.984,1006.354 L 70.92,1004.626 L 69.192,1008.082 L 6.984,1006.354 z" />
    </g>
    <g
       style="fill:#ffffff"
       id="g56"
       transform="translate(0,-924.362)">
      <path
         style="fill:#ffffff"
         id="path58"
         d="M 6.984,1012.402 L 67.896,1010.746 L 66.168,1013.986 L 6.984,1012.402 z" />
    </g>
    <g
       style="fill:#ffffff"
       id="g60"
       transform="translate(0,-924.362)">
      <path
         style="fill:#ffffff"
         id="path62"
         d="M 6.984,1036.378 L 50.976,1035.154 L 50.976,1037.602 L 6.984,1036.378 z" />
    </g>
    <g
       style="fill:#ffffff"
       id="g64"
       transform="translate(0,-924.362)">
      <path
         style="fill:#ffffff"
         id="path66"
         d="M 6.984,1030.402 L 58.104,1028.962 L 58.032,1029.106 L 57.888,1029.178 L 57.744,1029.322 L 57.6,1029.394 L 57.528,1029.538 L 57.384,1029.61 L 57.312,1029.682 L 57.168,1029.682 L 57.024,1029.754 L 56.952,1029.826 L 56.808,1029.898 L 56.736,1029.898 L 56.592,1029.97 L 56.448,1029.97 L 56.376,1029.97 L 56.232,1030.042 L 56.088,1030.042 L 55.944,1030.042 L 50.976,1030.114 L 50.976,1031.554 L 6.984,1030.402 z" />
    </g>
    <g
       style="fill:#ffffff"
       id="g68"
       transform="translate(0,-924.362)">
      <path
         style="fill:#ffffff"
         id="path70"
         d="M 6.984,1024.354 L 61.776,1022.914 L 60.984,1024.498 L 60.696,1025.002 L 60.48,1025.506 L 60.264,1025.866 L 6.984,1024.354 z" />
    </g>
    <g
       style="fill:#ffffff"
       id="g72"
       transform="translate(0,-924.362)">
      <path
         style="fill:#ffffff"
         id="path74"
         d="M 6.984,1018.378 L 64.8,1016.794 L 63.288,1019.89 L 6.984,1018.378 z" />
    </g>
    <g
       style="fill:#ffffff"
       id="g76"
       transform="translate(0,-924.362)">
      <path
         style="fill:#ffffff"
         id="path78"
         d="M 63.936,924.49 L 118.872,924.49 C 123.84,924.49 127.872,928.522 127.872,933.49 L 127.872,1043.362 C 127.872,1048.33 123.84,1052.362 118.872,1052.362 L 63.936,1052.362 L 63.936,1050.418 L 117.864,1050.418 C 122.256,1050.418 125.856,1046.818 125.856,1042.426 L 125.856,934.498 C 125.856,930.106 122.256,926.506 117.864,926.506 L 63.936,926.506 L 63.936,924.49 z" />
    </g>
    <g
       style="fill:#ffffff"
       id="g80"
       transform="translate(0,-924.362)">
      <path
         style="fill:#ffffff"
         id="path82"
         d="M 9,924.49 L 63.936,924.49 L 63.936,926.506 L 9.936,926.506 C 5.544,926.506 1.944,930.106 1.944,934.498 L 1.944,1042.426 C 1.944,1046.818 5.544,1050.418 9.936,1050.418 L 63.936,1050.418 L 63.936,1052.362 L 9,1052.362 C 4.032,1052.362 0,1048.33 0,1043.362 L 0,933.49 C 0,928.522 4.032,924.49 9,924.49 z" />
    </g>
  </g>
</svg>
